X:1
T:Title
%%score { ( 1 3 ) | ( 2 4 ) }
L:1/8
Q:1/4=100
M:4/4
K:Db
V:1 treble nm="Grand Piano"
V:3 treble 
V:2 bass 
V:4 bass 
V:1
 [Fd]2 [Fd]>[Ge] [Fd]<[FA] [DF]>[EG] | [FA]>[_F=G] [=FA]>[_GB] [FA]4 | c2 c>d c<G A>B | %3
w: Charles~H.~Gabriel * * * * * *|||
 c>B A>G F4 | [DFB]2 [DFB]>[DFB] [DFB]<[DF] [DF]>[DF] | [Ec]>[Ec] [EF]>[EF] [Fd]4 | %6
w: |||
 [=Gd]2 [Ec]>[EB] [Ee]>[Ee] A>A | c>c B>B [A,A]2- [A,GA]2 | [Fd]2 [Fd]>[Ge] [Fd] [DFA]3 | %9
w: |||
 [DGB]>[DGB] [=DAB]>[DAB] [EB]2- [E=GB]2 | [EAe]2 [D=Ge]>[DGe] [CAe] [CEA]3 | c>d c>B A2 B>c | %12
w: |||
 [Fd]4 [Fd]>[FA] [_F=G]>[=FA] | [Ac]2 B2 B4 | d2 c>B A<[Ad] [=Gd][GB] | [Ge]3 [Fd] [Fd]4 |] %16
w: ||||
V:2
 [D,A,]2 [D,A,]>[D,A,] [D,A,]<[D,D] [D,A,]>[D,A,] | [D,D]>[D,D] [D,D]>[D,D] [D,D]4 | %2
 [A,G]2 [A,EG]>[A,EG] [A,EG]<[A,CE] [A,CE]>[A,DE] | [A,EG]>[A,CG] [A,DF]>[K:bass][A,E] [D,A,D]4 | %4
 B,,2 B,,>B,, B,,<[B,,B,] [B,,B,]>[B,,B,] | [=A,,F,]>[A,,F,] [C,=A,]>[C,A,] [B,,B,]4 | %6
 [E,B,]2 [E,A,]>[D,G,] [C,A,]>[C,A,] [F,A,C]>[F,A,C] | %7
 [E,A,E]>[E,A,E] [E,=G,D]>[E,G,D] z z/ _G,/ F,>E, | [D,A,]2 [D,A,]>[D,A,] [D,A,] D,3 | %9
 G,>G, F,>F, E,2 D,2 | C,2 B,,>B,, A,, A,,3 | %11
 [E,A,E]>[E,B,E] [E,A,E]>[E,=G,D][K:treble] [A,C]2 [A,CG]>[A,G] | %12
 [D,A,]4 [D,A,]>[D,D] [D,D]>[D,D] | [G,D]2[K:treble] [G,DG]2 [G,DG]4 | %14
 [=G,B,_F]2 [G,B,F]>[G,DF] [A,D=F]<[K:bass][F,D] [E,B,][E,D] | [A,,C]3 [D,A,] [D,A,]4 |] %16
V:3
 x8 | x8 | x8 | x8 | x8 | x8 | x8 | z4 C2 z2 | x8 | z4 G2 z2 | x8 | x8 | x8 | x8 | x8 | x8 |] %16
V:4
 x8 | x8 | x8 | x7/2[K:bass] x9/2 | x8 | x8 | x8 | z4 A,,4 | x8 | x8 | x8 | x4[K:treble] x4 | x8 | %13
 x2[K:treble] x6 | x9/2[K:bass] x7/2 | x8 |] %16

